brandFactory_export/3.Masa/Configurar celular_3Masa.svg

<?xml version="1.0" encoding="UTF-8"?>
<svg width="24px" height="24px" viewBox="0 0 24 24" version="1.1" xmlns="http://www.w3.org/2000/svg" xmlns:xlink="http://www.w3.org/1999/xlink">
    <title>3.Masa/Configurar celular_3Masa</title>
    <g id="Symbols" stroke="none" stroke-width="1" fill="none" fill-rule="evenodd">
        <g id="3.Masa/Configurar-celular_3Masa" fill="#5CB615" fill-rule="nonzero">
            <path d="M18.8016807,1.24344979e-13 C21.389916,1.24344979e-13 22.7008403,1.32773109 22.6974854,3.94957983 L22.6974854,3.94957983 L22.6974854,19.6806723 C22.6974854,22.3394958 21.4235294,23.6302521 18.7983193,23.6302521 L18.7983193,23.6302521 L10.1764706,23.6302521 C7.5512605,23.6302521 6.27731092,22.3394958 6.27731092,19.6806723 L6.27731092,19.6806723 L6.27731092,15.7983193 C5.7394958,15.7747899 5.31260504,15.3310924 5.31260504,14.789916 L5.31260504,14.789916 L5.31260504,14.1546218 C5.22184874,14.1310924 5.13445378,14.1008403 5.04705882,14.0705882 L5.04705882,14.0705882 L4.62016807,14.497479 C4.22689076,14.8907563 3.58823529,14.8907563 3.19495798,14.497479 L3.19495798,14.497479 L2.31428571,13.6201681 C1.9210084,13.2268908 1.9210084,12.5882353 2.31428571,12.194958 L2.31428571,12.194958 L2.74117647,11.7680672 C2.71092437,11.6806723 2.68403361,11.5932773 2.65714286,11.502521 L2.65714286,11.502521 L2.02857143,11.502521 C1.47058824,11.502521 1.02016807,11.0521008 1.02016807,10.4941176 L1.02016807,10.4941176 L1.02016807,9.25042017 C1.02016807,8.69243697 1.47058824,8.24201681 2.02857143,8.24201681 L2.02857143,8.24201681 L2.6605042,8.24201681 C2.68403361,8.1512605 2.71428571,8.06386555 2.74453782,7.97647059 L2.74453782,7.97647059 L2.31764706,7.54957983 C1.92436975,7.15630252 1.92436975,6.51764706 2.31764706,6.12436975 L2.31764706,6.12436975 L3.19831933,5.24705882 C3.59159664,4.85378151 4.2302521,4.85378151 4.62352941,5.24705882 L4.62352941,5.24705882 L5.05042017,5.67394958 C5.13781513,5.64369748 5.22521008,5.61680672 5.31596639,5.58991597 L5.31596639,5.58991597 L5.31596639,4.96134454 C5.31260504,4.42016807 5.7394958,3.97647059 6.28067227,3.95294118 L6.28067227,3.95294118 C6.28067227,2.62184874 6.59327731,1.65714286 7.23529412,0.998319328 C7.88739496,0.32605042 8.85210084,1.24344979e-13 10.1798319,1.24344979e-13 L10.1798319,1.24344979e-13 Z M14.502521,18.3697479 C13.8067227,18.3697479 13.3563025,18.7327731 13.3563025,19.5193277 C13.3563025,19.8957983 13.4605042,20.1781513 13.6453782,20.3663866 C13.8470588,20.5714286 14.1394958,20.6689076 14.502521,20.6689076 C14.8655462,20.6689076 15.1579832,20.5714286 15.3596639,20.3663866 C15.5445378,20.1781513 15.6487395,19.8991597 15.6487395,19.5193277 C15.6487395,18.7361345 15.1983193,18.3697479 14.502521,18.3697479 Z M7.57142857,4.96134454 L6.32773109,4.96134454 L6.32773109,6.42016807 C5.74621849,6.48067227 5.2487395,6.63529412 4.83529412,6.88403361 L4.83529412,6.88403361 L3.91092437,5.95966387 L3.0302521,6.83697479 L3.9512605,7.76134454 C3.7092437,8.16470588 3.5512605,8.66218487 3.48739496,9.25378151 L3.48739496,9.25378151 L2.02857143,9.25378151 L2.02857143,10.497479 L3.48739496,10.497479 C3.5512605,11.0890756 3.70588235,11.5865546 3.9512605,11.989916 L3.9512605,11.989916 L3.02689076,12.9142857 L3.90756303,13.7915966 L4.83193277,12.8672269 C5.24537815,13.1159664 5.74621849,13.2672269 6.32436975,13.3310924 L6.32436975,13.3310924 L6.32436975,14.789916 L7.56806723,14.789916 L7.56806723,13.3344538 C8.14957983,13.2739496 8.64705882,13.1193277 9.0605042,12.8705882 L9.0605042,12.8705882 L9.98487395,13.794958 L10.8621849,12.9142857 L9.93781513,11.989916 C10.1798319,11.5865546 10.3378151,11.0890756 10.4016807,10.497479 L10.4016807,10.497479 L11.8605042,10.497479 L11.8605042,9.25714286 L10.4016807,9.25714286 C10.3411765,8.66554622 10.1831933,8.16806723 9.93781513,7.76470588 L9.93781513,7.76470588 L10.8655462,6.83697479 L9.98823529,5.95966387 L9.06386555,6.88403361 C8.65042017,6.63529412 8.14957983,6.48403361 7.57142857,6.42016807 L7.57142857,6.42016807 L7.57142857,4.96134454 Z M6.94621849,8.13109244 C8.05210084,8.13109244 8.6907563,8.68235294 8.6907563,9.87563025 C8.6907563,11.0689076 8.05210084,11.6201681 6.94621849,11.6201681 C5.84033613,11.6201681 5.20168067,11.0689076 5.20168067,9.87563025 C5.20168067,8.68235294 5.84033613,8.13109244 6.94621849,8.13109244 Z" id="Configurar-celular_3Masa"></path>
        </g>
    </g>
</svg>

<svg width="24" height="24" viewBox="0 0 24 24" xmlns="http://www.w3.org/2000/svg"><path d="M18.802 0c2.588 0 3.899 1.328 3.895 3.95v15.73c0 2.66-1.273 3.95-3.899 3.95h-8.622c-2.625 0-3.899-1.29-3.899-3.95v-3.882a1.01 1.01 0 01-.964-1.008v-.635c-.091-.024-.179-.054-.266-.084l-.427.426a1.008 1.008 0 01-1.425 0l-.88-.877a1.008 1.008 0 010-1.425l.426-.427a6.13 6.13 0 01-.084-.265H2.03c-.558 0-1.009-.45-1.009-1.009V9.25c0-.558.45-1.008 1.009-1.008h.632c.023-.09.053-.178.084-.266l-.427-.426a1.008 1.008 0 010-1.426l.88-.877a1.008 1.008 0 011.426 0l.426.427a6.13 6.13 0 01.266-.084V4.96a1.005 1.005 0 01.965-1.008c0-1.331.312-2.296.954-2.955C7.887.326 8.852 0 10.18 0zm-4.3 18.37c-.695 0-1.146.363-1.146 1.15 0 .376.105.658.29.846.201.205.493.303.857.303.363 0 .655-.098.857-.303.185-.188.289-.467.289-.847 0-.783-.45-1.15-1.146-1.15zM7.573 4.96H6.327v1.46c-.582.06-1.08.214-1.493.463l-.924-.924-.88.877.92.924c-.242.404-.4.901-.464 1.493H2.03v1.243h1.458c.064.592.219 1.09.464 1.493l-.924.924.88.878.925-.925c.413.249.914.4 1.492.464v1.459h1.244v-1.456c.582-.06 1.08-.215 1.493-.463l.924.924.877-.88-.924-.925c.242-.403.4-.9.464-1.493h1.459v-1.24H10.4c-.06-.591-.218-1.089-.463-1.492l.928-.928-.878-.877-.924.924c-.414-.249-.914-.4-1.493-.464V4.961zm-.626 3.17c1.106 0 1.745.551 1.745 1.745 0 1.193-.639 1.744-1.745 1.744s-1.744-.551-1.744-1.744c0-1.194.638-1.745 1.744-1.745z" fill="#5CB615" fill-rule="nonzero"/></svg>
